!!!COM: Palestrina, Giovanni Perluigi da
!!!OPR: Panem nostrum
!!!OTL: Credo
**kern	**kern	**kern	**kern	**kern
*Ibass	*Ibarit	*Itenor	*Icalto	*Icant
!Bassus	!Baritone	!Tenor	!Altus	!Cantus
*clefF4	*clefF4	*clefGv2	*clefG2	*clefG2
*k[b-]	*k[b-]	*k[b-]	*k[b-]	*k[b-]
*G:dor	*G:dor	*G:dor	*G:dor	*G:dor
*M4/2	*M4/2	*M4/2	*M4/2	*M4/2
=1	=1	=1	=1	=1
0B-	0r	0d	0f	0b-
=2	=2	=2	=2	=2
1A	0r	1e	1a	1cc
1G	.	1g	1b-	1dd
=3	=3	=3	=3	=3
2d	0r	2f	2a	2dd
2B-	.	2f	2b-	2dd
1c	.	1e	1g	1cc
=4	=4	=4	=4	=4
2A	0r	2e	2a	2cc
2F	.	2f	2a	2cc
2c	.	2g	2cc	2ee-
2c	.	2g	2cc	2ee-
=5	=5	=5	=5	=5
1d	0r	1f	1a	1dd
2A	.	2f	2a	2cc
2B-	.	2d	2f	2b-
=6	=6	=6	=6	=6
1E-	0r	2.e-	1g	4cc
.	.	.	.	4b-
.	.	.	.	1b-
.	.	4d	.	.
1F	.	1c	2.f	.
.	.	.	.	2a
.	.	.	4e-	.
=7	=7	=7	=7	=7
1BB-	0r	1B-	1d	1b-
[1B-	.	2r	2r	[1dd
.	.	[2f	[2b-	.
=8	=8	=8	=8	=8
2B-]	0r	2f]	2b-]	2dd]
2B-	.	2f	2b-	2dd
2B-	.	2f	2b-	2dd
2c	.	2e	2g	2cc
=9	=9	=9	=9	=9
2G	0r	2d	2g	2b-
1B-	.	1d	1f	1b-
2G	.	2e	2g	2b-
=10	=10	=10	=10	=10
0F	0r	2.f	2c	1a
.	.	.	2.cc	.
.	.	4g	.	.
.	.	1a	.	2r
.	.	.	4b-	.
.	.	.	4a	[2ff
.	.	.	4g	.
=11	=11	=11	=11	=11
0r	1F	1r	1a	4ff]
.	.	.	.	4ee
.	.	.	.	4dd
.	.	.	.	4cc
.	1F	2.f	1a	2dd
.	.	.	.	2cc
.	.	4e	.	.
=12	=12	=12	=12	=12
0r	1G	4d	1.g	2b-
.	.	4c	.	.
.	.	2d	.	4g
.	.	.	.	4a
.	1G	1g	.	4b-
.	.	.	.	4cc
.	.	.	2b-	4dd
.	.	.	.	4b-
=13	=13	=13	=13	=13
0r	1A	2e	1a	2cc
.	.	2f	.	1dd
.	1A	2e	1a	.
.	.	2e	.	2cc#
=14	=14	=14	=14	=14
1D	2A	2d	2f#	2dd
.	1A	1d	1f#	1a
1D	.	.	.	.
.	2A	2d	2f#	2a
=15	=15	=15	=15	=15
2G	2G	2d	2g	2b
2G	2G	2d	2g	2b
2C	2G	2e-	2.g	2cc
2C	2G	2e-	.	2cc
.	.	.	4g	.
=16	=16	=16	=16	=16
1G	1B-	1d	2g	1dd
.	.	.	2.b-	.
1G	1B-	[1d	.	2.dd
.	.	.	4a	.
.	.	.	2g	.
.	.	.	.	4cc
=17	=17	=17	=17	=17
2.D	0A	1d]	0f	4dd
.	.	.	.	4ee
.	.	.	.	1ff
4E	.	.	.	.
1F	.	[1c	.	.
.	.	.	.	2cc
=18	=18	=18	=18	=18
2.C	0G	1c]	0g	0ee-
4D	.	.	.	.
1E-	.	1B-	.	.
=19	=19	=19	=19	=19
1BB-	0F	2B-	1b-	2dd
.	.	2.d	.	2.b-
1r	.	.	2r	.
.	.	4d	.	4b-
.	.	2c	[2f	2a
=20	=20	=20	=20	=20
0r	0r	2d	4f]	2b-
.	.	.	4f	.
.	.	2c	2e	2cc
.	.	1B-	2f	1dd
.	.	.	2g	.
=21	=21	=21	=21	=21
0r	0r	1A	2a	2cc#
.	.	.	2f	1dd
.	.	2.A	2.e	.
.	.	.	.	2cc#
.	.	4A	4e	.
=22	=22	=22	=22	=22
0r	1G	2B-	2d	2dd
.	.	1d	1b-	1g
.	1G	.	.	.
.	.	2d	2g	2b-
=23	=23	=23	=23	=23
0r	1F	1.f	2a	4cc
.	.	.	.	4b-
.	.	.	4f	4a
.	.	.	4g	4g
.	1F	.	4a	2f
.	.	.	4b-	.
.	.	2f	4cc	2a
.	.	.	4a	.
=24	=24	=24	=24	=24
0r	1G	4d	2b-	0g
.	.	8c	.	.
.	.	8d	.	.
.	.	2e-	1cc	.
.	1G	1d	.	.
.	.	.	2b	.
=25	=25	=25	=25	=25
2r	1A	2r	1cc	2e
1F	.	1c	.	1a
.	1A	.	2.f	.
2D	.	2d	.	2f
.	.	.	4f	.
=26	=26	=26	=26	=26
2E-	2.G	2B-	2e-	2g
2C	.	2c	2e-	2g
.	4G	.	.	.
2G	1G	2B-	1d	2.b-
[2B-	.	4G	.	.
.	.	4A	.	4cc
=27	=27	=27	=27	=27
4B-]	2G	4B-	2r	1dd
4A	.	4c	.	.
4G	2G	2d	2.b-	.
4F	.	.	.	.
1G	1G	2e-	.	1r
.	.	.	4a	.
.	.	[2d	4g	.
.	.	.	4f	.
=28	=28	=28	=28	=28
2.E-	0r	2d]	2g	1r
.	.	2c	2g	.
4E-	.	.	.	.
1D	.	1d	2f#	2r
.	.	.	2f#	2a
=29	=29	=29	=29	=29
0r	0r	2r	2g	2b
.	.	2G	2g	2b
.	.	2A	1e	1cc#
.	.	2A	.	.
=30	=30	=30	=30	=30
2r	1G	1B	2d	2dd
2G	.	.	2g	2dd
2C	2G	2c	2g	2ee
2C	2G	2c	2g	2ee
=31	=31	=31	=31	=31
2.F	1.F	2c	2.a	1.ff
.	.	2F	.	.
4E	.	.	4g	.
2D	.	2A	2f	.
2D	2F	2B	2d	2ff
=32	=32	=32	=32	=32
2C	2G	2c	2e	1ee
1C	1G	1e	1g	.
.	.	.	.	2r
2C	2G	2e	2g	2cc
=33	=33	=33	=33	=33
1F	1A	0f	1c	2cc
.	.	.	.	1ff
1D	2A	.	2d	.
.	2A	.	2d	2dd
=34	=34	=34	=34	=34
2r	1G	1d	2B-	2dd
2G	.	.	2G	2b-
2E-	1G	2r	1g	2g
2C	.	2c	.	[2ee-
=35	=35	=35	=35	=35
2.E-	1G	2B-	1.g	4ee-]
.	.	.	.	4dd
.	.	2G	.	2b-
4D	.	.	.	.
[1C	1G	2.e-	.	2.cc
.	.	.	2c	.
.	.	4d	.	4b-
=36	=36	=36	=36	=36
1C]	0r	2c	2e-	4a
.	.	.	.	4g
.	.	2B-	2e-	1g
1D	.	1A	1d	.
.	.	.	.	2f#
=37	=37	=37	=37	=37
2r	0r	1G	2.B-	2.g
1G	.	.	.	.
.	.	.	4c	4a
.	.	2r	1d	4b-
.	.	.	.	4a
2G	.	[2d	.	4b-
.	.	.	.	4cc
=38	=38	=38	=38	=38
2B-	0r	2d]	0r	1dd
2B-	.	2d	.	.
1A	.	2f	.	1r
.	.	2f	.	.
=39	=39	=39	=39	=39
2G	0r	1e	0r	0r
1c	.	.	.	.
.	.	2d	.	.
2B-	.	[2g	.	.
=40	=40	=40	=40	=40
2G	0r	2g]	0r	0r
2A	.	2f	.	.
2B-	.	2d	.	.
4c	.	2e	.	.
4B-	.	.	.	.
=41	=41	=41	=41	=41
4A	0r	1.f	0r	0r
4G	.	.	.	.
4F	.	.	.	.
4E	.	.	.	.
2D	.	.	.	.
[2d	.	2f	.	.
=42	=42	=42	=42	=42
2d]	0r	1e	2r	1ee
2c#	.	.	1a	.
1d	.	1d	.	2ff
.	.	.	2b-	2dd
=43	=43	=43	=43	=43
0r	0r	0r	2g	2ee
.	.	.	2a	2ff
.	.	.	2b-	2.gg
.	.	.	[2cc	.
.	.	.	.	4ff
=44	=44	=44	=44	=44
0r	0r	1A	4cc]	4ee
.	.	.	4b-	4dd
.	.	.	4a	2cc
.	.	.	4g	.
.	.	2B-	4f	1dd
.	.	.	8g	.
.	.	.	8a	.
.	.	2G	2b-	.
=45	=45	=45	=45	=45
0r	0r	2A	2a	2cc
.	.	2B-	1g	4b-
.	.	.	.	8a
.	.	.	.	8g
.	.	2c	.	1a
.	.	2d	2f#	.
=46	=46	=46	=46	=46
2r	1B-	2G	0g	2r
2B-	.	2G	.	2dd
2G	2B-	1d	.	2b-
2G	2B-	.	.	2b-
=47	=47	=47	=47	=47
1F	1c	2f	0r	1a
.	.	2F	.	.
2E	2c	2G	.	2g
2E	2c	2G	.	2g
=48	=48	=48	=48	=48
2D	2d	1A	2r	2f#
2D	2d	.	2dd	2f#
2G	2d	1r	2b-	2g
2G	2d	.	2b-	2g
=49	=49	=49	=49	=49
1F#	1d	0r	1a	1a
2G	2d	.	2g	2b-
2G	2d	.	2g	2b-
=50	=50	=50	=50	=50
1A	1c	1r	2.e	2.a
.	.	.	8f	4b-
.	.	.	8g	.
1F	1c	2r	1a	[1cc
.	.	2A	.	.
=51	=51	=51	=51	=51
1C	1e-	0c	0g	2cc]
.	.	.	.	2gg
1C	1e-	.	.	2gg
.	.	.	.	2g
=52	=52	=52	=52	=52
1BB-	1d	1F	2r	2b-
.	.	.	2b-	2.dd
1D	1d	[1F	2a	.
.	.	.	.	4cc
.	.	.	[2f	[2b-
=53	=53	=53	=53	=53
0F	0c	2F]	2f]	2b-]
.	.	2.f	2c	4a
.	.	.	.	4g
.	.	.	1f	1a
.	.	4e-	.	.
.	.	2c	.	.
=54	=54	=54	=54	=54
1BB-	0B-	1d	1f	1b-
1r	.	1r	1r	1r
=55	=55	=55	=55	=55
1B-	0r	1f	1b-	1dd
2B-	.	2f	2b-	2dd
2B-	.	2d	2f	2dd
=56	=56	=56	=56	=56
1E-	0r	1e-	1g	1b-
1G	.	1d	1g	1b-
=57	=57	=57	=57	=57
2F	1c	2f	2cc	2a
2F	.	2f	2a	2cc
2F	2c	2f	2a	2cc
2F	2c	2f	2a	2cc
=58	=58	=58	=58	=58
1BB-	1B-	1f	2.b-	1dd
.	.	.	8a	.
.	.	.	8g	.
1D	1B-	1d	2f	1ff
.	.	.	2d	.
=59	=59	=59	=59	=59
1C	1c	1e	1g	2ee
.	.	.	.	1cc
1F	2c	2r	2r	.
.	2c	[2f	[2a	2cc
=60	=60	=60	=60	=60
0r	1d	2f]	2a]	1a
.	.	2f	2a	.
.	1d	1d	1f	1b-
=61	=61	=61	=61	=61
0r	1c	2e	2g	1cc
.	.	2g	1e	.
.	1c	2g	.	1cc
.	.	[2f	2a	.
=62	=62	=62	=62	=62
0r	0c	2f]	0g	0cc
.	.	4e	.	.
.	.	4d	.	.
.	.	1e	.	.
=63	=63	=63	=63	=63
0F	0r	0f	0a	0cc
=64	=64	=64	=64	=64
0BB-	0r	0f	0b-	0dd
=65	=65	=65	=65	=65
0F	0c	2.f	4a	4cc
.	.	.	4b-	4b-
.	.	.	4cc	4a
.	.	4g	4b-	4g
.	.	1a	4a	4f
.	.	.	4g	4g
.	.	.	4f	2a
.	.	.	4e	.
=66	=66	=66	=66	=66
2.G	0B-	2r	4d	1g
.	.	.	4c	.
.	.	2.g	4B-	.
4F	.	.	4A	.
2.E-	.	.	1G	2r
.	.	4f	.	.
.	.	[2e-	.	[2gg
4D	.	.	.	.
=67	=67	=67	=67	=67
0C	0c	4e-]	[0g	4gg]
.	.	4d	.	4ff
.	.	4c	.	2.ee-
.	.	4d	.	.
.	.	1e-	.	.
.	.	.	.	4dd
.	.	.	.	[2cc
=68	=68	=68	=68	=68
0G	0d	1d	0g]	2cc]
.	.	.	.	4b
.	.	.	.	4a
.	.	[1G	.	2b
.	.	.	.	2b
=69	=69	=69	=69	=69
1E	0c	1G]	1g	[0cc
1F	.	1A	1f	.
=70	=70	=70	=70	=70
0C	0c	0G	0e	0cc]
*	*	*	*	*-
!! Crucifixus
*Itenor	*Icalto	*Icant	*Icant
!Tenor	!Altus	!Cantus 2	!Cantus 1
*clefGv2	*clefG2	*clefG2	*clefG2
*k[b-]	*k[b-]	*k[b-]	*k[b-]
*G:dor	*G:dor	*G:dor	*G:dor
*M4/2	*M4/2	*M4/2	*M4/2
=71	=71	=71	=71
0r	1r	0r	0dd
.	[1g	.	.
=72	=72	=72	=72
0r	2g]	0r	1b-
.	2g	.	.
.	1a	.	1cc
=73	=73	=73	=73
0r	1b-	1r	2dd
.	.	.	2g
.	2r	[1dd	2g
.	2g	.	[2b-
=74	=74	=74	=74
0r	2g	1dd]	4b-]
.	.	.	4a
.	2.b-	.	4g
.	.	.	4f
.	.	1b-	4g
.	4a	.	4a
.	2g	.	4b-
.	.	.	4g
=75	=75	=75	=75
0r	2f	1cc	2a
.	2e	.	2g
.	2d	1dd	1b-
.	[2g	.	.
=76	=76	=76	=76
0d	2g]	2r	0a
.	4f	2dd	.
.	4e	.	.
.	4f	2dd	.
.	4g	.	.
.	4a	[2ff	.
.	4f	.	.
=77	=77	=77	=77
1B-	1b-	4ff]	0r
.	.	4ee	.
.	.	2dd	.
1c	2a	2cc	.
.	[2g	2b-	.
=78	=78	=78	=78
1d	4g]	[0a	2r
.	4f	.	.
.	2f	.	2dd
2r	2.d	.	2dd
2d	.	.	[2ff
.	4e	.	.
=79	=79	=79	=79
2d	4f	1a]	4ff]
.	4g	.	4ee
2.f	2.a	.	2dd
.	.	1r	2cc
4e	4g	.	.
2d	2f	.	2b-
=80	=80	=80	=80
2c	2e	1r	4a
.	.	.	4g
2B-	2d	.	1dd
1A	1e	2r	.
.	.	2ee	2cc#
=81	=81	=81	=81
1d	2d	1.ff	1dd
.	2a	.	.
1r	[1b-	.	2r
.	.	2ff	2dd
=82	=82	=82	=82
0r	2b-]	1dd	1.ff
.	2b-	.	.
.	2a	2cc	.
.	[2b-	[2dd	2ff
=83	=83	=83	=83
0r	4b-]	4dd]	1dd
.	4a	4cc	.
.	4g	4b-	.
.	4f	4a	.
.	2e	2g	2cc
.	2d	2a	[2dd
=84	=84	=84	=84
0r	0g	0b-	4dd]
.	.	.	4cc
.	.	.	4b-
.	.	.	4a
.	.	.	4g
.	.	.	4a
.	.	.	[2b-
=85	=85	=85	=85
1r	1f	1cc	2b-]
.	.	.	2a
[1B-	1r	[1dd	1b-
=86	=86	=86	=86
1B-]	0f	1dd]	2r
.	.	.	1b-
1F	.	1cc	.
.	.	.	2a
=87	=87	=87	=87
2.G	2d	2.b-	1.dd
.	1g	.	.
4A	.	4cc	.
2B-	.	2dd	.
2c	2g	2ee-	4cc
.	.	.	4b-
=88	=88	=88	=88
2d	2f	2dd	2a
2e	2e	2cc	2g
2f#	[1d	[1dd	2a
[2g	.	.	2b-
=89	=89	=89	=89
2g]	1d]	1dd]	1a
2f#	.	.	.
2g	2r	2r	1g
2G	2b-	2dd	.
=90	=90	=90	=90
2.d	2.a	2.ff	0r
4d	4a	4ff	.
2d	2a	2ff	.
2c	2a	2ee	.
=91	=91	=91	=91
2B-	2b-	2dd	1r
2A	2cc	2cc	.
[1G	4dd	2b-	2r
.	4cc	.	.
.	4b-	4dd	2g
.	4a	4cc	.
=92	=92	=92	=92
1G]	4g	4b-	2.dd
.	4f	4a	.
.	2g	2b-	.
.	.	.	4dd
1A	1e	2.a	2dd
.	.	.	2cc
.	.	8b-	.
.	.	8cc	.
=93	=93	=93	=93
2B-	1d	[0dd	2b-
2F	.	.	2a
1G	2.b-	.	1g
.	4a	.	.
=94	=94	=94	=94
2r	1g	0dd]	1b-
2g	.	.	.
2f	4d	.	2a
.	4e	.	.
2d	4f	.	2dd
.	4g	.	.
=95	=95	=95	=95
2.f	1a	0r	2cc
.	.	.	2a
8e	.	.	.
8d	.	.	.
2c	1r	.	4cc
.	.	.	4b-
[2d	.	.	4a
.	.	.	4g
=96	=96	=96	=96
4d]	0r	2r	2f
4c	.	.	.
2B-	.	2dd	1g
1A	.	2cc	.
.	.	2a	2f#
=97	=97	=97	=97
2.G	2r	0b-	4g
.	.	.	4a
.	2g	.	4b-
4A	.	.	4cc
2.B-	2f	.	[1dd
.	2d	.	.
4c	.	.	.
=98	=98	=98	=98
1d	1f	1a	1dd]
2r	1g	2dd	[1b-
[2g	.	[2dd	.
=99	=99	=99	=99
2g]	1d	2dd]	2b-]
2f#	.	2dd	2a
1g	2r	1dd	1b-
.	[2g	.	.
=100	=100	=100	=100
1d	2g]	0dd	1a
.	2f#	.	.
1g	2g	.	1b-
.	[2b-	.	.
=101	=101	=101	=101
2.f	2b-]	1ff	2.cc
.	2a	.	.
8e-	.	.	4dd
8d	.	.	.
1c	1cc	1gg	1ee-
=102	=102	=102	=102
1d	1a	1ff#	1dd
2r	2r	2r	2r
2G	2b-	2gg	2dd
=103	=103	=103	=103
2d	2a	2ff	2dd
2G	2b-	2gg	2dd
2B-	2b-	2ff	2dd
2c	2g	2ee-	2cc
=104	=104	=104	=104
4G	1g	2dd	1b-
4A	.	.	.
4B-	.	1dd	.
4c	.	.	.
4d	1f	.	2.a
4e	.	.	.
[2f	.	4cc	.
.	.	4b-	8g
.	.	.	8f
=105	=105	=105	=105
2f]	1c	1cc	1g
2e	.	.	.
[1f	2r	2cc	1a
.	2f	2a	.
=106	=106	=106	=106
1f]	2.a	2.cc	0r
.	4a	4cc	.
1r	2a	2cc	.
.	2b-	2dd	.
=107	=107	=107	=107
2r	2a	2cc	2r
2G	2g	2b-	2dd
2.d	4f	1a	2.ff
.	4g	.	.
.	4a	.	.
4d	4f	.	4ff
=108	=108	=108	=108
2d	2.b-	1r	2ff
2e-	.	.	2gg
.	8a	.	.
.	8g	.	.
2d	2a	2r	2ff
2c	2a	2cc	2ee-
=109	=109	=109	=109
1B-	2.b-	2.ff	1dd
.	4b-	4ff	.
1r	2b-	2dd	1r
.	2cc	2ee-	.
=110	=110	=110	=110
1r	2b-	2dd	1r
.	2a	2cc	.
[1B-	1b-	1dd	[1ff
=111	=111	=111	=111
1B-]	1b-	1dd	1ff]
1f	1a	1cc	1ff
=112	=112	=112	=112
1g	1b	2r	1dd
.	.	1g	.
1c	2.cc	.	1ee-
.	.	[2cc	.
.	4b-	.	.
=113	=113	=113	=113
1c	2a	2cc]	1ee-
.	2g	2b-	.
2d	2f#	2a	2dd
[2G	[2g	[2b-	[2dd
=114	=114	=114	=114
2G]	2g]	2b-]	2dd]
2G	2g	2b-	2dd
1B-	1f	1b-	1dd
=115	=115	=115	=115
1F	2f	0a	1cc
.	1cc	.	.
1f	.	.	1r
.	2a	.	.
=116	=116	=116	=116
2d	2b-	0r	1r
2e	4cc	.	.
.	4b-	.	.
4f	4a	.	2r
4e	4g	.	.
4d	2f	.	2ff
4c	.	.	.
=117	=117	=117	=117
2B-	1g	1r	2dd
2c	.	.	2ee
[1d	1f	2r	4ff
.	.	.	4ee
.	.	2gg	4dd
.	.	.	4cc
=118	=118	=118	=118
2d]	1r	2dd	2b-
2c	.	2ee	2cc
1B-	2r	4ff	1dd
.	.	4ee	.
.	2b-	4dd	.
.	.	4cc	.
=119	=119	=119	=119
2r	2g	2b-	2dd
2F	2a	2cc	2cc
1B-	4b-	1dd	2.b-
.	4a	.	.
.	4g	.	.
.	4f	.	4a
=120	=120	=120	=120
1c	4e	2cc	1g
.	4f	.	.
.	1g	2cc	.
1d	.	1a	1dd
.	2f#	.	.
=121	=121	=121	=121
0G	0g	0b	0dd
*-	*-	*-	*-
!! Et in Spiritum
**kern	**kern	**kern	**kern	**kern
*Ibass	*Ibarit	*Itenor	*Icalto	*Icant
!Bassus	!Baritone	!Tenor	!Altus	!Cantus
*clefF4	*clefF4	*clefGv2	*clefG2	*clefG2
*k[b-]	*k[b-]	*k[b-]	*k[b-]	*k[b-]
*G:dor	*G:dor	*G:dor	*G:dor	*G:dor
*M4/2	*M4/2	*M4/2	*M4/2	*M4/2
=122	=122	=122	=122	=122
1.G	0r	1.d	1.g	1.b
2G	.	2d	2g	2b
=123	=123	=123	=123	=123
2.c	0r	2.e	2.g	2.cc
4c	.	4e	4g	4cc
2F	.	2f	2a	2cc
[2F	.	[2a	[2cc	[2ff
=124	=124	=124	=124	=124
2F]	0r	2a]	2cc]	2ff]
2C	.	2g	2cc	2ee
2D	.	2f	2.a	2dd
2A	.	2e	.	2cc#
.	.	.	4a	.
=125	=125	=125	=125	=125
2D	0r	2d	2f	1dd
1d	.	1f	1a	.
.	.	.	.	1r
2c	.	2e	2a	.
=126	=126	=126	=126	=126
2B-	0r	2d	2g	1r
2A	.	2c	2a	.
1G	.	2.d	[1b-	2r
.	.	.	.	[2dd
.	.	4e	.	.
=127	=127	=127	=127	=127
1F	0r	1f	2b-]	2dd]
.	.	.	2a	2cc
1r	.	1B-	4g	2b-
.	.	.	4f	.
.	.	.	[2f	2a
=128	=128	=128	=128	=128
1r	0r	1c	4f]	1g
.	.	.	8e	.
.	.	.	8d	.
.	.	.	2e	.
[1B-	.	2.d	2f	2f
.	.	.	[2f	[2dd
.	.	4c	.	.
=129	=129	=129	=129	=129
2B-]	0r	2B-	2f]	2dd]
2A	.	2c	2f	2cc
2G	.	2d	2g	2b-
2F	.	2d	2a	2a
=130	=130	=130	=130	=130
2G	0r	2d	2g	2b-
2E-	.	2G	2g	2cc
1D	.	1A	1f	1dd
=131	=131	=131	=131	=131
2C	0r	2c	2e	2g
2BB-	.	2d	2f	1b-
1F	.	1c	1f	.
.	.	.	.	2a
=132	=132	=132	=132	=132
1BB-	1F	2d	2f	2b-
.	.	1f	1b-	1dd
1r	1F	.	.	.
.	.	2f	2a	2cc
=133	=133	=133	=133	=133
0r	1G	1d	1g	1b-
.	2G	2B-	2d	2g
.	2G	2d	2g	2b-
=134	=134	=134	=134	=134
1r	2.A	2d	2f	2.a
.	.	2c#	2e	.
.	4A	.	.	4a
[1D	1A	1d	1f#	1a
=135	=135	=135	=135	=135
1D]	1A	1d	1f#	2r
.	.	.	.	1dd
1D	1A	1d	1f#	.
.	.	.	.	2dd
=136	=136	=136	=136	=136
1E-	1G	2r	1.g	1b-
.	.	2G	.	.
1C	1G	1e-	.	1cc
.	.	.	2c	.
=137	=137	=137	=137	=137
0BB-	0B-	0d	0f	1dd
.	.	.	.	1b-
=138	=138	=138	=138	=138
1F	2A	2c	2f	2cc
.	2A	2f	2a	2cc
1r	2A	2e	2a	2cc
.	2A	2c	2e	2a
=139	=139	=139	=139	=139
0r	2.G	2d	2g	2b
.	.	2e	2g	1cc
.	4G	.	.	.
.	1G	1d	1g	.
.	.	.	.	2b
=140	=140	=140	=140	=140
2r	0F	2f	2a	1cc
1F	.	1f	1a	.
.	.	.	.	1r
2A	.	2c	2cc	.
=141	=141	=141	=141	=141
2G	0r	2d	2b-	2r
2F	.	2f	2a	1cc
1c	.	1e	2g	.
.	.	.	[2cc	2g
=142	=142	=142	=142	=142
1F	0r	2.f	2cc]	2a
.	.	.	2a	2cc
.	.	4e	.	.
[1G	.	4d	[1g	2b-
.	.	4c	.	.
.	.	4B-	.	[2dd
.	.	4A	.	.
=143	=143	=143	=143	=143
1G]	0G	2B-	1g]	2dd]
.	.	2B-	.	2dd
1C	.	1c	1g	1ee-
=144	=144	=144	=144	=144
2D	1F	2A	2r	0dd
2D	.	2A	2d	.
2D	1F	2A	2f	.
2D	.	2B-	2f	.
=145	=145	=145	=145	=145
1C	1G	1c	1e-	0r
2C	2G	2c	2e-	.
2E-	2G	2c	2g	.
=146	=146	=146	=146	=146
2D	2.A	2d	2f	0r
2C	.	2e-	2e-	.
.	4A	.	.	.
1D	1A	4f	[1d	.
.	.	4e-	.	.
.	.	4d	.	.
.	.	4c	.	.
=147	=147	=147	=147	=147
2r	1G	2B-	2d]	2r
2G	.	2B-	2d	2dd
2G	2G	2B-	2g	2dd
2G	2G	2B-	2g	2dd
=148	=148	=148	=148	=148
2.C	2.G	2.e-	2.g	2.cc
4C	4G	4e-	4g	4cc
2C	1G	2e-	[1g	2cc
2C	.	2c	.	2ee-
=149	=149	=149	=149	=149
2G	0r	2B-	2g]	2dd
2E-	.	2G	2g	2cc
[1D	.	2.A	4f	2.dd
.	.	.	4g	.
.	.	.	[2a	.
.	.	8B-	.	4cc
.	.	8c	.	.
=150	=150	=150	=150	=150
0D]	0r	0d	2a]	2b-
.	.	.	1g	4a
.	.	.	.	4g
.	.	.	.	2a
.	.	.	2f#	2a
=151	=151	=151	=151	=151
0r	1G	2r	2g	1.b-
.	.	2d	2g	.
.	2G	2d	2g	.
.	2G	2e	2g	2b-
=152	=152	=152	=152	=152
1r	1F	2.f	4cc	1a
.	.	.	4b-	.
.	.	.	4a	.
.	.	4e	4g	.
1D	1F	1d	1a	2r
.	.	.	.	2dd
=153	=153	=153	=153	=153
1.E-	1G	0r	2r	2cc
.	.	.	2g	2b-
.	1G	.	2g	1cc
2E-	.	.	[2g	.
=154	=154	=154	=154	=154
1D	0A	1r	2g]	0dd
.	.	.	4f#	.
.	.	.	4e	.
1D	.	2r	1f#	.
.	.	2d	.	.
=155	=155	=155	=155	=155
2E-	[0G	2c	2.g	2r
2E-	.	2B-	.	2g
.	.	.	4f	.
1C	.	1c	1e-	2g
.	.	.	.	2cc
=156	=156	=156	=156	=156
2G	0G]	2d	2d	2b-
1B-	.	1d	1g	4g
.	.	.	.	4a
.	.	.	.	4b-
.	.	.	.	4cc
2B-	.	2d	2g	2dd
=157	=157	=157	=157	=157
2.A	0r	2.c	2f	0r
.	.	.	2e	.
4G	.	4B-	.	.
2F	.	2A	2d	.
2E	.	2G	2c	.
=158	=158	=158	=158	=158
2F	0r	1A	2d	2r
2F	.	.	2.c	1ff
1D	.	1d	.	.
.	.	.	8B	.
.	.	.	8A	.
.	.	.	2B	2ff
=159	=159	=159	=159	=159
2C	0r	2.g	4c	2.ee
.	.	.	4d	.
4C	.	.	4e	.
4D	.	4f	4f	4dd
4E	.	2e	2.g	2cc
4F	.	.	.	.
2G	.	2d	.	2b
.	.	.	8f	.
.	.	.	8g	.
=160	=160	=160	=160	=160
1C	0r	1e	4a	2cc
.	.	.	4g	.
.	.	.	1g	2cc
1D	.	2d	.	1a
.	.	2A	2f#	.
=161	=161	=161	=161	=161
1G	0r	1B	2g	2g
.	.	.	2d	1g
1C	.	2.c	1e	.
.	.	.	.	[2a
.	.	4B-	.	.
=162	=162	=162	=162	=162
1D	1F	2A	4f	2a]
.	.	.	4e	.
.	.	2F	4d	2.b-
.	.	.	4c	.
1E-	1G	1r	2B-	.
.	.	.	.	4a
.	.	.	2c	2g
=163	=163	=163	=163	=163
1D	2A	2r	2d	2f
.	2A	2d	1a	1ff
2.F	2.A	1c	.	.
.	.	.	2f	2ff
4F	4A	.	.	.
=164	=164	=164	=164	=164
2C	2G	2c	2g	2.ee-
2C	2G	2c	2g	.
.	.	.	.	4ee-
2G	2B-	2d	2g	2dd
2G	2B-	2d	2g	2dd
=165	=165	=165	=165	=165
2D	2A	2d	2f	2dd
2F	2A	2c	1f	2a
1C	1G	1c	.	1cc
.	.	.	2e	.
=166	=166	=166	=166	=166
2F	1F	2A	2f	2cc
2A	.	2f	2c	2cc
1B-	1r	1d	1f	1dd
=167	=167	=167	=167	=167
2A	1r	2e	2a	2cc
2D	.	2f	2a	2dd
2G	1G	2g	2b-	2dd
2C	.	2e	2cc	2ee
=168	=168	=168	=168	=168
2D	1F	2d	4b-	2ff
.	.	.	4a	.
2F	.	2c	2.a	2ff
2C	2G	1c	.	2ee
.	.	.	4g	.
2E	2G	.	[2g	2cc
=169	=169	=169	=169	=169
1D	2A	2r	2g]	1dd
.	2A	2A	2f#	.
2r	2.G	1B-	1g	2r
2G	.	.	.	2dd
.	4G	.	.	.
=170	=170	=170	=170	=170
1C	1G	1c	2r	1ee-
.	.	.	2g	.
1G	1r	1d	1b-	2dd
.	.	.	.	2g
=171	=171	=171	=171	=171
1D	1r	1.d	2a	2g
.	.	.	2a	2f#
2G	1G	.	2b-	2g
2C	.	2e	2cc	2g
=172	=172	=172	=172	=172
2D	2F	2f	4b-	2dd
.	.	.	4a	.
2F	2F	2f	2.a	4cc
.	.	.	.	4b-
2C	2.G	1e-	.	1cc
.	.	.	4g	.
2E-	.	.	[2g	.
.	4G	.	.	.
=173	=173	=173	=173	=173
1D	1A	2r	2g]	1dd
.	.	2A	2f#	.
2r	1G	2.B-	1g	2.dd
[2G	.	.	.	.
.	.	4c	.	4cc
=174	=174	=174	=174	=174
4G]	[0G	2d	2.g	4b-
4F	.	.	.	4a
4E-	.	2.g	.	2b-
4D	.	.	4f	.
[1C	.	.	4e-	2cc
.	.	4f	4d	.
.	.	4e-	4c	[2gg
.	.	4d	4d	.
=175	=175	=175	=175	=175
0C]	1G_	2.c	2.e-	4gg]
.	.	.	.	4ff
.	.	.	.	4ee-
.	.	4d	4f	4dd
.	1G_	1e-	1g	1cc
=176	=176	=176	=176	=176
0G	0G]	0d	0g	0b
==	==	==	==	==
*-	*-	*-	*-	*-
!!!CDT: 1525/^1526/-1594/2/2
!!!OCY: Italia
!!!AGN: Mass (Tenor)
!!!AST: renaissance, vocal
!!!ASW: Prayer
!!!PWK: Masses, Book 10
!!!RNB: Cadence finals: C
!!!YOR: Le Opere Complete, v. 27, p. 226
!!!YOO: Rome, Italy: Fratelli Scalera
!!!END: 1992//
!!!EED: John Miller
!!!YEC: Copyright 2000, John Miller
!!!YEN: United States of America
!!!YEM: Rights to all derivative electronic formats reserved.
!!!YEM: Refer to licensing agreement for further details.
!!!YEM: This file must be accompanied by the licensing agreement.
!!!YEM: A copy of the licensing agreement may be found at http://www.music-cog.ohio-state.edu/HumdrumDatabases/Palestrina/license.txt
!!!EMD: converted to Humdrum by Bret Aarden
